src/categories/symbolic/applications-electronics-symbolic.svg

<svg version="1.1" viewBox="0 0 16 16" xmlns="http://www.w3.org/2000/svg">
 <path d="m4 0v2c-1.108 0-2 0.892-2 2h-2v1h2v1h-2v1h2v2h-2v1h2v1h-2v1h2c0 1.108 0.892 2 2 2v2h1v-2h1v2h1v-2h2v2h1v-2h1v2h1v-2c1.108 0 2-0.892 2-2h2v-1h-2v-1h2v-1h-2v-2h2v-1h-2v-1h2v-1h-2c0-1.108-0.892-2-2-2v-2h-1v2h-1v-2h-1v2h-2v-2h-1v2h-1v-2h-1zm0 3h8c0.554 0 1 0.446 1 1v8c0 0.554-0.446 1-1 1h-8c-0.554 0-1-0.446-1-1v-8c0-0.554 0.446-1 1-1zm1 2v6h6v-6h-6zm1 1h1v1h1v-1h1v1h1v1h-1v1h1v1h-1v-1h-1v1h-1v-1h-1v-1h1v-1h-1v-1zm1 2v1h1v-1h-1zm1 0h1v-1h-1v1z" fill="#363636" fill-rule="evenodd" stop-color="#000000" stroke-width="0" style="paint-order:stroke fill markers"/>
</svg>

<svg xmlns="http://www.w3.org/2000/svg" viewBox="0 0 16 16">
    <path fill="#050505" fill-opacity=".7" fill-rule="evenodd" d="M4 0v2c-1.108 0-2 .892-2 2H0v1h2v1H0v1h2v2H0v1h2v1H0v1h2c0 1.108.892 2 2 2v2h1v-2h1v2h1v-2h2v2h1v-2h1v2h1v-2c1.108 0 2-.892 2-2h2v-1h-2v-1h2V9h-2V7h2V6h-2V5h2V4h-2c0-1.108-.892-2-2-2V0h-1v2h-1V0H9v2H7V0H6v2H5V0H4zm0 3h8c.554 0 1 .446 1 1v8c0 .554-.446 1-1 1H4c-.554 0-1-.446-1-1V4c0-.554.446-1 1-1zm1 2v6h6V5H5zm1 1h1v1h1V6h1v1h1v1H9v1h1v1H9V9H8v1H7V9H6V8h1V7H6V6zm1 2v1h1V8H7zm1 0h1V7H8v1z" style="paint-order:stroke fill markers"/>
</svg>
